dist/img/svg/email.svg

<svg width="22" height="18" viewBox="0 0 22 18" xmlns="http://www.w3.org/2000/svg">
<path d="M22 17.007C21.9982 17.2696 21.8931 17.521 21.7075 17.7068C21.5219 17.8926 21.2706 17.9979 21.008 18H2.992C2.72881 17.9997 2.4765 17.895 2.29049 17.7088C2.10448 17.5226 2 17.2702 2 17.007V16H20V4.3L12 11.5L2 2.5V1C2 0.734784 2.10536 0.48043 2.29289 0.292893C2.48043 0.105357 2.73478 0 3 0H21C21.2652 0 21.5196 0.105357 21.7071 0.292893C21.8946 0.48043 22 0.734784 22 1V17.007ZM4.434 2L12 8.81L19.566 2H4.434ZM0 12H8V14H0V12ZM0 7H5V9H0V7Z" fill="#32353D"/>
</svg>

<svg width="22" height="18" viewBox="0 0 22 18" xmlns="http://www.w3.org/2000/svg"><path d="M22 17.007a1 1 0 01-.992.993H2.992A.993.993 0 012 17.007V16h18V4.3l-8 7.2-10-9V1a1 1 0 011-1h18a1 1 0 011 1v16.007zM4.434 2L12 8.81 19.566 2H4.434zM0 12h8v2H0v-2zm0-5h5v2H0V7z" fill="#32353D"/></svg>
